X:1
T:Title
L:1/8
M:4/4
K:Eb
V:1 treble nm="Grand Piano"
V:1
 z4 z2[Q:1/4=100] ED | C2 C2 G2 G2 | ccBA G4- | G2 G2 e2 e2 | d2 dc c=Bdc | c6 Bc | d2 dc B2 BA | %7
 c2 BA G4- | G2 FG A2 GF | E2 DE FGED | C6 G2 | A2 G2 c2 =Bc | d2 ed c4- | c2 G2 A2 GG | %14
 c2 B2 A2 BA | G6 FG | A2 F2 G2 EE | FGEF D4- | D2 G2 A2 F2 | G2 DE FGED | C6 z2 |] %21

